X: 2
T: The New Broom
C: Vincent Broderick
M: 4/4
L: 1/8
R: barndance
K: G Major
|: G2 G2 d2 B>d | e2 d>B d2 B>A | G2 G>A B2 A>G | A2 E2 E4 |
G2 G>B (3ded (3Bcd | e2 d>B d2 (3Bcd | e>dg>e d>BA>d | B2 G2 G4 :|
|: b2 b2 g3 a | b>ga>g e2 d2 | e2 e2 d>BG>A | B2 A2 A4 | 
[1 b2 b>a (3gag (3fga | b>ga>g (3ege (3def | g3 e d>BA>d | B2 G2 G4 :|
[2 G2 G2 d2 B>d | e2 d>B d4 | e2 g>e d>BA>d | B2 G2 G4 |]
